assets/icons/24px/stroke/triangle-equilateral-24px.svg

<svg width="24" height="24" viewBox="0 0 24 24" fill="none" xmlns="http://www.w3.org/2000/svg">
<path fill-rule="evenodd" clip-rule="evenodd" d="M11.9888 5.17907C11.7784 5.452 11.53 5.89103 11.1271 6.61203L5.03583 17.5122C4.64912 18.2042 4.41746 18.6242 4.30115 18.9312C4.29916 18.9365 4.29723 18.9416 4.29537 18.9466C4.30066 18.9474 4.30609 18.9483 4.31165 18.9491C4.63638 18.9973 5.11604 19 5.90877 19H18.0913C18.884 19 19.3637 18.9973 19.6884 18.9491C19.694 18.9483 19.6994 18.9474 19.7047 18.9466C19.7028 18.9416 19.7009 18.9365 19.6989 18.9312C19.5826 18.6242 19.3509 18.2042 18.9642 17.5122L12.873 6.61204C12.4701 5.89103 12.2217 5.452 12.0112 5.17907C12.0074 5.17413 12.0037 5.16932 12 5.16465C11.9964 5.16932 11.9926 5.17413 11.9888 5.17907ZM10.4049 3.95792C10.7311 3.53477 11.2329 3.04993 12 3.04993C12.7672 3.04993 13.2689 3.53477 13.5952 3.95793C13.9074 4.36291 14.2276 4.93609 14.5831 5.57247C14.595 5.59371 14.6069 5.61502 14.6189 5.63639L20.7453 16.5995C21.0853 17.2077 21.3937 17.7595 21.5692 18.2226C21.7544 18.7115 21.8973 19.3702 21.5207 20.0121C21.144 20.654 20.4994 20.8506 19.9822 20.9274C19.4923 21.0002 18.8602 21.0001 18.1633 21H5.83677C5.13989 21.0001 4.50777 21.0002 4.01784 20.9274C3.5007 20.8506 2.85604 20.654 2.4794 20.0121C2.10275 19.3702 2.24565 18.7115 2.43088 18.2226C2.60636 17.7594 2.91479 17.2077 3.25481 16.5994C3.26649 16.5785 3.2782 16.5575 3.28994 16.5365L9.3812 5.63639C9.39314 5.61502 9.40504 5.59371 9.41691 5.57248C9.77244 4.9361 10.0927 4.36291 10.4049 3.95792Z" fill="white"/>
</svg>

<svg width="24" height="24" fill="none" xmlns="http://www.w3.org/2000/svg"><path fill-rule="evenodd" clip-rule="evenodd" d="M11.989 5.18c-.21.272-.459.711-.862 1.432l-6.091 10.9c-.387.692-.619 1.112-.735 1.42l-.006.015.017.002c.324.048.804.051 1.597.051H18.09c.793 0 1.273-.003 1.597-.05.006-.002.011-.003.017-.003l-.006-.016c-.116-.307-.348-.727-.735-1.419l-6.091-10.9c-.403-.721-.651-1.16-.862-1.433A1.282 1.282 0 0 0 12 5.165l-.011.014zm-1.584-1.222c.326-.423.828-.908 1.595-.908s1.269.485 1.595.908c.312.405.633.978.988 1.614l.036.064L20.745 16.6c.34.609.649 1.16.824 1.624.185.489.328 1.147-.048 1.79-.377.641-1.022.838-1.539.914-.49.073-1.122.073-1.819.073H5.837c-.697 0-1.33 0-1.82-.073-.516-.076-1.161-.273-1.538-.915-.376-.642-.233-1.3-.048-1.79.175-.463.484-1.014.824-1.623l.035-.063 6.091-10.9.036-.064c.355-.636.676-1.21.988-1.614z" fill="#fff"/></svg>
